X: 24
T:Christmas Eve
R:Reel
C:Tommy Coen
S:arr. Paddy O'Brien
Z:Set: Christmas Eve/Bunker Hill/Hunter's Purse
M:C|
L:1/8
Q:1/2=112
E:9
K:G
|:GE|~D2DE GFGA|~B2dB ABGB|ABGE DB,DE|~G2BG ABGE|
DB,DE GFGA|~B2dB ABGA|BA~A2 GEBG|ABGE ~G2:|
|:GA|BABd edeg|abae ~g2eg|abag gfge|dedB ~A2GA|
BABd edeg|abge ~g2eg|aege ~d2BG|ABGE G2:|
|:dc|BG~G2 DGBd|eg~g2 egdc|BG~G2 dGBG|EA~A2 DAFA|
BGGF ~G2Bd|eg~g2 egdg|bgag egdB|ABGE G2:|
